Yosa-Max/status/scalable/security-medium.svg

<?xml version="1.0" encoding="UTF-8"?>
<svg id="svg942" width="48" height="48" version="1.1" viewBox="0 0 12.7 12.7" xmlns="http://www.w3.org/2000/svg" xmlns:xlink="http://www.w3.org/1999/xlink">
 <defs id="defs936">
  <linearGradient id="linearGradient2204" x1="6.349997" x2="6.349997" y1="296.47079" y2="284.90417" gradientTransform="translate(2.9668415e-6,-284.29995)" gradientUnits="userSpaceOnUse">
   <stop id="stop4182" style="stop-color:#ffbb02" offset="0"/>
   <stop id="stop4184" style="stop-color:#ffd151" offset="1"/>
  </linearGradient>
 </defs>
 <path id="path1021" d="m6.3500002 0.529165-5.0205933 2.19872s-0.1635336 4.40905 1.1512128 6.52799c1.0968117 1.7677 3.196426 2.66342 3.8693805 2.91496 0.6729571-0.25154 2.7725687-1.14726 3.8693798-2.91496 1.314747-2.11894 1.151213-6.52799 1.151213-6.52799z" style="fill:url(#linearGradient2204);paint-order:stroke fill markers"/>
 <path id="path1562" d="m6.3381146 3.968765a1.0583333 1.0583333 0 0 0-1.0583336 1.05834v1.0583301h-0.5172808v2.1166701h3.1749997v-2.1166701h-0.541052v-1.0583302a1.0583333 1.0583333 0 0 0-1.0583333-1.0583399zm0 0.5291701a0.52916667 0.52916667 0 0 1 0.5291664 0.5291698v1.0583302h-1.0583331v-1.0583302a0.52916667 0.52916667 0 0 1 0.5291667-0.5291698z" style="fill:#ffffff;paint-order:stroke fill markers"/>
</svg>

<?xml version="1.0" encoding="UTF-8" standalone="no"?>
<svg
   xmlns:dc="http://purl.org/dc/elements/1.1/"
   xmlns:cc="http://creativecommons.org/ns#"
   xmlns:rdf="http://www.w3.org/1999/02/22-rdf-syntax-ns#"
   xmlns:svg="http://www.w3.org/2000/svg"
   xmlns="http://www.w3.org/2000/svg"
   xmlns:xlink="http://www.w3.org/1999/xlink"
   xmlns:sodipodi="http://sodipodi.sourceforge.net/DTD/sodipodi-0.dtd"
   xmlns:inkscape="http://www.inkscape.org/namespaces/inkscape"
   id="svg942"
   version="1.1"
   viewBox="0 0 12.7 12.7"
   height="48"
   width="48"
   sodipodi:docname="security-medium.svg"
   inkscape:version="0.92.2 2405546, 2018-03-11">
  <sodipodi:namedview
     pagecolor="#ffffff"
     bordercolor="#666666"
     borderopacity="1"
     objecttolerance="10"
     gridtolerance="10"
     guidetolerance="10"
     inkscape:pageopacity="0"
     inkscape:pageshadow="2"
     inkscape:window-width="1366"
     inkscape:window-height="701"
     id="namedview15"
     showgrid="false"
     inkscape:zoom="10.1875"
     inkscape:cx="24"
     inkscape:cy="24"
     inkscape:window-x="0"
     inkscape:window-y="0"
     inkscape:window-maximized="1"
     inkscape:current-layer="svg942" />
  <defs
     id="defs936">
    <linearGradient
       xlink:href="#a-3"
       id="linearGradient991"
       x1="24.049976"
       y1="45.427723"
       x2="23.499022"
       y2="14.205187"
       gradientUnits="userSpaceOnUse"
       gradientTransform="matrix(0.26458333,0,0,0.26458333,0.01815154,-0.02373)" />
    <linearGradient
       id="a-3"
       gradientTransform="matrix(1.0749904,0,0,1.1792904,57.227964,-9.7964761)"
       gradientUnits="userSpaceOnUse"
       x1="-74.929466"
       x2="-75.259552"
       y1="52.199436"
       y2="2.3564889">
      <stop
         offset="0"
         stop-color="#ffa400"
         id="stop2-6" />
      <stop
         offset="1"
         stop-color="#fd0"
         id="stop4-7" />
    </linearGradient>
    <linearGradient
       id="b"
       gradientUnits="userSpaceOnUse"
       x1="399.9939"
       x2="399.9939"
       y1="545.13873"
       y2="518.13873">
      <stop
         offset="0"
         stop-color="#197ff1"
         id="stop7" />
      <stop
         offset="1"
         stop-color="#21c6fb"
         id="stop9" />
    </linearGradient>
    <linearGradient
       id="a"
       gradientUnits="userSpaceOnUse"
       x1="399.57144"
       x2="399.57144"
       y1="545.79797"
       y2="517.79797">
      <stop
         offset="0"
         stop-color="#3889e9"
         id="stop2" />
      <stop
         offset="1"
         stop-color="#5ea5fb"
         id="stop4" />
    </linearGradient>
    <linearGradient
       id="linearGradient4232">
      <stop
         id="stop4234-0"
         offset="0"
         style="stop-color:#3889e9;stop-opacity:1" />
      <stop
         id="stop4236"
         offset="1"
         style="stop-color:#5ea5fb;stop-opacity:1" />
    </linearGradient>
    <linearGradient
       gradientTransform="translate(2.9668415e-6,-284.29995)"
       inkscape:collect="always"
       xlink:href="#linearGradient4180"
       id="linearGradient2204"
       x1="6.349997"
       y1="296.47079"
       x2="6.349997"
       y2="284.90417"
       gradientUnits="userSpaceOnUse" />
    <linearGradient
       id="linearGradient4180">
      <stop
         style="stop-color:#ffbb02;stop-opacity:1"
         offset="0"
         id="stop4182" />
      <stop
         style="stop-color:#ffd151;stop-opacity:1"
         offset="1"
         id="stop4184" />
    </linearGradient>
    <linearGradient
       gradientTransform="matrix(0.41578056,0,0,0.41577503,-196.86157,-213.38234)"
       gradientUnits="userSpaceOnUse"
       y2="517.79797"
       x2="399.57144"
       y1="545.79797"
       x1="399.57144"
       id="linearGradient3426"
       xlink:href="#linearGradient4232"
       inkscape:collect="always" />
    <linearGradient
       inkscape:collect="always"
       xlink:href="#linearGradient4232"
       id="linearGradient1230"
       gradientUnits="userSpaceOnUse"
       gradientTransform="matrix(0.41578056,0,0,0.41577503,-210.60938,-215.5436)"
       x1="399.57144"
       y1="545.79797"
       x2="399.57144"
       y2="517.79797" />
  </defs>
  <metadata
     id="metadata939">
    <rdf:RDF>
      <cc:Work
         rdf:about="">
        <dc:format>image/svg+xml</dc:format>
        <dc:type
           rdf:resource="http://purl.org/dc/dcmitype/StillImage" />
        <dc:title></dc:title>
      </cc:Work>
    </rdf:RDF>
  </metadata>
  <path
     style="opacity:1;vector-effect:none;fill:url(#linearGradient2204);fill-opacity:1;stroke:none;stroke-width:0.05291667;stroke-linecap:round;stroke-linejoin:miter;stroke-miterlimit:4;stroke-dasharray:none;stroke-dashoffset:0;stroke-opacity:1;paint-order:stroke fill markers"
     d="m 6.3500002,0.529165 -5.0205933,2.19872 c 0,0 -0.1635336,4.40905 1.1512128,6.52799 1.0968117,1.7677 3.196426,2.66342 3.8693805,2.91496 0.6729571,-0.25154 2.7725687,-1.14726 3.8693798,-2.91496 1.314747,-2.11894 1.151213,-6.52799 1.151213,-6.52799 z"
     id="path1021"
     inkscape:connector-curvature="0" />
  <g
     style="display:inline"
     id="layer2"
     transform="matrix(0.26458333,0,0,0.26458333,0.63531261,0.08607941)" />
  <g
     style="display:inline"
     id="layer1-3"
     transform="matrix(0.26458333,0,0,0.26458333,0.63531261,0.08607941)" />
  <g
     transform="matrix(0.44669797,0,0,0.44669797,-231.85444,-206.60141)"
     id="layer1-39"
     inkscape:label="Capa 1" />
  <circle
     style="opacity:1;fill:url(#linearGradient3426);fill-opacity:1;stroke:none;stroke-width:0.5404647;stroke-miterlimit:4;stroke-dasharray:none;stroke-dashoffset:0;stroke-opacity:1"
     id="ellipse4233"
     cx="-30.311775"
     cy="7.7259541"
     r="0" />
  <g
     id="layer2-7"
     style="display:inline;stroke:none;stroke-width:1.29988825;stroke-miterlimit:4;stroke-dasharray:none;stroke-opacity:1"
     transform="matrix(0.26542783,0,0,0.26508742,-15.806517,2.3677694)" />
  <g
     id="layer1-65"
     style="display:inline;stroke:none;stroke-width:1.29988825;stroke-miterlimit:4;stroke-dasharray:none;stroke-opacity:1"
     transform="matrix(0.26542783,0,0,0.26508742,-15.806517,2.3677694)" />
  <g
     id="layer2-3"
     style="display:inline;stroke:none;stroke-width:1.29988825;stroke-miterlimit:4;stroke-dasharray:none;stroke-opacity:1"
     transform="matrix(0.2324351,0,0,0.23418325,-21.819187,1.4941494)" />
  <g
     id="layer1-6"
     style="display:inline;stroke:none;stroke-width:1.29988825;stroke-miterlimit:4;stroke-dasharray:none;stroke-opacity:1"
     transform="matrix(0.2324351,0,0,0.23418325,-21.819187,1.4941494)" />
  <g
     transform="matrix(0.26542783,0,0,0.26508742,-16.729177,3.1275794)"
     style="display:inline;stroke:none;stroke-width:1.29988825;stroke-miterlimit:4;stroke-dasharray:none;stroke-opacity:1"
     id="layer2-4" />
  <g
     transform="matrix(0.26542783,0,0,0.26508742,-16.729177,3.1275794)"
     style="display:inline;stroke:none;stroke-width:1.29988825;stroke-miterlimit:4;stroke-dasharray:none;stroke-opacity:1"
     id="layer1-5" />
  <g
     transform="matrix(0.2324351,0,0,0.23418325,-22.741836,2.2539594)"
     style="display:inline;stroke:none;stroke-width:1.29988825;stroke-miterlimit:4;stroke-dasharray:none;stroke-opacity:1"
     id="layer2-3-2" />
  <g
     transform="matrix(0.2324351,0,0,0.23418325,-22.741836,2.2539594)"
     style="display:inline;stroke:none;stroke-width:1.29988825;stroke-miterlimit:4;stroke-dasharray:none;stroke-opacity:1"
     id="layer1-6-5" />
  <g
     transform="matrix(0.26458683,0,0,0.26458333,-23.511276,1.5216594)"
     style="display:inline;stroke:none;stroke-width:1.29988825;stroke-miterlimit:4;stroke-dasharray:none;stroke-opacity:1"
     id="layer2-45" />
  <g
     transform="matrix(0.26458683,0,0,0.26458333,-23.511276,1.5216594)"
     style="display:inline;stroke:none;stroke-width:1.29988825;stroke-miterlimit:4;stroke-dasharray:none;stroke-opacity:1"
     id="layer1-36" />
  <g
     transform="matrix(0.26458683,0,0,0.26458333,-67.608878,4.4133796)"
     style="display:inline;stroke:none;stroke-width:1.29988825;stroke-miterlimit:4;stroke-dasharray:none;stroke-opacity:1"
     id="layer2-36" />
  <g
     transform="matrix(0.26458683,0,0,0.26458333,-67.608878,4.4133796)"
     style="display:inline;stroke:none;stroke-width:1.29988825;stroke-miterlimit:4;stroke-dasharray:none;stroke-opacity:1"
     id="layer1-0" />
  <g
     style="display:inline;stroke-width:1.31742239;stroke-miterlimit:4;stroke-dasharray:none"
     id="layer2-2"
     transform="matrix(0.26458333,0,0,0.26458333,-13.112493,-2.0751906)" />
  <g
     style="display:inline;stroke-width:1.31742239;stroke-miterlimit:4;stroke-dasharray:none"
     id="layer1-3-9"
     transform="matrix(0.26458333,0,0,0.26458333,-13.112493,-2.0751906)" />
  <g
     style="stroke-width:1.31742239;stroke-miterlimit:4;stroke-dasharray:none"
     transform="matrix(0.44669797,0,0,0.44669797,-245.60225,-208.76267)"
     id="layer1-39-1"
     inkscape:label="Capa 1" />
  <circle
     style="opacity:1;fill:url(#linearGradient1230);fill-opacity:1;stroke:none;stroke-width:0.5404647;stroke-miterlimit:4;stroke-dasharray:none;stroke-dashoffset:0;stroke-opacity:1"
     id="ellipse4233-2"
     cx="-44.059582"
     cy="5.5646996"
     r="0" />
  <g
     id="layer2-7-7"
     style="display:inline;stroke:none;stroke-width:1.29988825;stroke-miterlimit:4;stroke-dasharray:none;stroke-opacity:1"
     transform="matrix(0.26542783,0,0,0.26508742,-29.554323,0.20649941)" />
  <g
     id="layer1-65-0"
     style="display:inline;stroke:none;stroke-width:1.29988825;stroke-miterlimit:4;stroke-dasharray:none;stroke-opacity:1"
     transform="matrix(0.26542783,0,0,0.26508742,-29.554323,0.20649941)" />
  <g
     id="layer2-3-9"
     style="display:inline;stroke:none;stroke-width:1.29988825;stroke-miterlimit:4;stroke-dasharray:none;stroke-opacity:1"
     transform="matrix(0.2324351,0,0,0.23418325,-35.566993,-0.6671206)" />
  <g
     id="layer1-6-3"
     style="display:inline;stroke:none;stroke-width:1.29988825;stroke-miterlimit:4;stroke-dasharray:none;stroke-opacity:1"
     transform="matrix(0.2324351,0,0,0.23418325,-35.566993,-0.6671206)" />
  <g
     transform="matrix(0.26542783,0,0,0.26508742,-30.476983,0.96630942)"
     style="display:inline;stroke:none;stroke-width:1.29988825;stroke-miterlimit:4;stroke-dasharray:none;stroke-opacity:1"
     id="layer2-4-6" />
  <g
     transform="matrix(0.26542783,0,0,0.26508742,-30.476983,0.96630942)"
     style="display:inline;stroke:none;stroke-width:1.29988825;stroke-miterlimit:4;stroke-dasharray:none;stroke-opacity:1"
     id="layer1-5-0" />
  <g
     transform="matrix(0.2324351,0,0,0.23418325,-36.489642,0.09268942)"
     style="display:inline;stroke:none;stroke-width:1.29988825;stroke-miterlimit:4;stroke-dasharray:none;stroke-opacity:1"
     id="layer2-3-2-6" />
  <g
     transform="matrix(0.2324351,0,0,0.23418325,-36.489642,0.09268942)"
     style="display:inline;stroke:none;stroke-width:1.29988825;stroke-miterlimit:4;stroke-dasharray:none;stroke-opacity:1"
     id="layer1-6-5-2" />
  <g
     transform="matrix(0.26458683,0,0,0.26458333,-37.259082,-0.6396106)"
     style="display:inline;stroke:none;stroke-width:1.29988825;stroke-miterlimit:4;stroke-dasharray:none;stroke-opacity:1"
     id="layer2-45-6" />
  <g
     transform="matrix(0.26458683,0,0,0.26458333,-37.259082,-0.6396106)"
     style="display:inline;stroke:none;stroke-width:1.29988825;stroke-miterlimit:4;stroke-dasharray:none;stroke-opacity:1"
     id="layer1-36-1" />
  <g
     transform="matrix(0.26458683,0,0,0.26458333,-81.356684,2.2521094)"
     style="display:inline;stroke:none;stroke-width:1.29988825;stroke-miterlimit:4;stroke-dasharray:none;stroke-opacity:1"
     id="layer2-36-8" />
  <g
     transform="matrix(0.26458683,0,0,0.26458333,-81.356684,2.2521094)"
     style="display:inline;stroke:none;stroke-width:1.29988825;stroke-miterlimit:4;stroke-dasharray:none;stroke-opacity:1"
     id="layer1-0-5" />
  <path
     style="opacity:1;fill:#5c616c;fill-opacity:1;stroke:none;stroke-width:0.52916664;stroke-linecap:square;stroke-linejoin:miter;stroke-miterlimit:4;stroke-dasharray:none;stroke-opacity:1;paint-order:stroke fill markers"
     id="path826"
     r="5"
     cy="6.8347459"
     cx="-0.82627177"
     d=""
     inkscape:connector-curvature="0" />
  <path
     style="opacity:1;fill:#ffffff;fill-opacity:1;stroke:none;stroke-width:0.52916664;stroke-linecap:square;stroke-linejoin:miter;stroke-miterlimit:4;stroke-dasharray:none;stroke-opacity:1;paint-order:stroke fill markers"
     d="M 6.3381146,3.968765 A 1.0583333,1.0583333 0 0 0 5.279781,5.027105 V 6.0854351 H 4.7625002 V 8.2021052 H 7.9374999 V 6.0854351 H 7.3964479 V 5.0271049 A 1.0583333,1.0583333 0 0 0 6.3381146,3.968765 Z m 0,0.5291701 A 0.52916667,0.52916667 0 0 1 6.867281,5.0271049 V 6.0854351 H 5.8089479 V 5.0271049 A 0.52916667,0.52916667 0 0 1 6.3381146,4.4979351 Z"
     id="path1562"
     inkscape:connector-curvature="0" />
</svg>
